X: 30078
T: Oh, Joe! The Boat Is Going Over
R: polka
M: 2/4
K: Dmajor
F3G|A3B|Afed|c2B2|
[1E3F|G2A2|BcBA|G4:|
[2e2f2|gec>B|AABc|d4||
FAd>A|FAd>c|dfed|c2B2|
GBe>d|cde>d|cdcB|A2A>G|
FAd>A|FAd>c|dfed|c2B>A|
e2f2|fed>c|AABc|d4||

